!!!COM: Corelli, Arcangelo
!!!OPR: Sonata da chiesa
!!!OPS: 3
!!!ONM: 7
!!!OMV: 4
!!!OMD: Allego
**kern	**harm	**fb	**kern	**kern
*part3	*above	*part3	*part2	*part1
*staff3	*	*	*staff2	*staff1
*I"Violone & Organo	*	*	*I"Violino II	*I"Violino I
*clefF4	*	*	*clefG2	*clefG2
*k[f#]	*	*	*k[f#]	*k[f#]
*e:	*	*	*e:	*e:
*M3/4	*	*	*M3/4	*M3/4
=1	=1	=1	=1	=1
4E	e.i{	.	2.r	8eL
.	.	.	.	(16gL
.	.	.	.	16f#JJ
8r	.	.	.	8eL)
8D	v6	6	.	8bJ
8CL	iv6	6	.	4ee
8AAJ	.	.	.	.
=2	=2	=2	=2	=2
4BB	V	#	8bL	4dd#X
.	.	.	16ff#L	.
.	.	.	16eeJJ	.
8r	.	.	8dd#XL	2r
8BB	.	.	8ff#J	.
8D#XL	.	6	4bb	.
8BBJ	.	.	.	.
=3	=3	=3	=3	=3
4E	i	.	4gg	8eeL
.	.	.	.	(16ggL
.	.	.	.	16ff#JJ
8r	.	.	8r	8eeL)
8E	.	.	8bb	8ggJ
8AL	iv7	.	8aaL	[4ccc
8AAJ	.	.	8ggJ	.
=4	=4	=4	=4	=4
4D	V7/III	7	4ff#	8cccL]
.	.	.	.	(16aaL
.	.	.	.	16ggJJ
8r	.	.	8r	8ff#L)
8D	.	.	8aa	8aaJ
8GL	IIIM7	.	8ggL	[4bb
8GGJ	.	.	8ff#J	.
=5	=5	=5	=5	=5
4C	VIM7	7	4ee	8bbL]
.	.	.	.	(16ggL
.	.	.	.	16ff#JJ
8r	.	.	8r	8eeL)
8c	.	.	8gg	8ggJ
8AL	ii%65	6	8ff#L	[4aa
8F#J	.	.	8eeJ	.
=6	=6	=6	=6	=6
8BL	V7	#	8dd#XL	8aaL]
8BBJ	.	.	8bJ	16bbL
.	.	.	.	16aaJJ
8CL	VI	5	4ee	16ggLL
.	.	.	.	16bb
8AAJ	iv	.	.	16aa
.	.	.	.	16ggJJ
4BB	V(4)	5 4	8.eeL	4ff#
.	V(4)	#	.	.
.	.	.	16dd#Jk	.
=7	=7	=7	=7	=7
4E	i|PAC}	.	4ee	8eeL
.	.	.	.	8bJ
8r	.	.	8r	8cc
8D	v6{	6	8f#	4b
4C	iv6(2)	7	4e	.
.	iv6	6	.	[8a
=8	=8	=8	=8	=8
4BB	V7	7 #	4d#X	8aL]
.	.	.	.	8bJ
4AA	iv7	7 5	4e	(16ccLL
.	.	.	.	16b)
.	.	.	.	(16a
.	.	.	.	16gJJ)
4BB	V(4)	5 4	8.eL	4f#
.	.	#	16d#Jk	.
=9	=9	=9	=9	=9
4E	i|PAC}	.	4e	8eL
.	.	.	.	8bJ
8r	.	.	8r	(8eeL
8E	.	.	8gg	8eJ)
8DL	VII{	.	8ff#L	4a
8CJ	iv6	6	8eeJ	.
=10	=10	=10	=10	=10
2.BB	V|HC}	#	2.dd#X	2.b
=11:|!|:	=11:|!|:	=11:|!|:	=11:|!|:	=11:|!|:
4B	.	#	2.r	8ff#L
.	.	.	.	16dd#XL
.	.	.	.	16cc#XJJ
8r	.	.	.	8bL
8BB	.	.	.	8ff#J
8D#XL	.	6	.	4bb
8BBJ	.	.	.	.
=12	=12	=12	=12	=12
4E	i	-	8eeL	4gg
.	.	.	(16bL	.
.	.	.	16aJJ	.
8r	.	.	8gL)	2r
8E	.	#	8bJ	.
8G#XL	V/iv	6	4ee	.
8EJ	.	.	.	.
=13	=13	=13	=13	=13
4A	IV	#	4cc#X	8aaL
.	.	.	.	16eeL
.	.	.	.	16ddJJ
8r	.	.	2r	8cc#XL
8AA	III.V7/V	.	.	8aaJ
8C#XL	.	6	.	4gg
8AAJ	.	.	.	.
=14	=14	=14	=14	=14
4D	V	.	8ddL	4ff#
.	.	.	(16aL	.
.	.	.	16gJJ	.
8r	.	.	8f#L)	2r
8D	.	.	8ddJ	.
8F#L	V7	6	4ccni	.
8DJ	.	.	.	.
=15	=15	=15	=15	=15
4G	I	.	4b	8ggL
.	.	.	.	(16ddL
.	.	.	.	16ccJJ
8r	.	.	8r	8bL)
8GG	.	.	8b	8ggJ
8BBL	V7/IV	-5	8ddL	4ffn
8GGJ	.	.	8bJ	.
=16	=16	=16	=16	=16
4C	IV	5	8gL	8eeL
.	ii6	6	8ccJ	8aaJ
4D	V	5	8aL	8ff#XiL
.	.	6	8ddJ	8bbJ
4E	vi	5	8bL	8ggL
.	IV6	6	8eeJ	8cccJ
=17	=17	=17	=17	=17
8F#L	V6	6	8dd	8aa
8GJ	I	.	4bb	4ddd
8BBL	I6	6	.	.
8CJ	ii6	.	16aaLL	16cccLL
.	.	.	16ggJJ	16bbJJ
4D	V	.	4ff#	4aa
=18	=18	=18	=18	=18
4GG	I|PAC}	.	8ggL	4gg
.	.	.	(16bL	.
.	.	.	16ccJJ	.
8r	.	.	8ddL)	8r
8B	iv.V7{	.	8bJ	8dd
8G#XL	.	6	8.eeL	8bL
8EJ	.	.	.	8g#XJ
.	.	.	16ddJk	.
=19	=19	=19	=19	=19
8AL	i	.	8cc	8e
8AAJ	.	.	4ee	4cc
8CL	i6	6	.	.
8DJ	iio6	.	16ddLL	16bLL
.	.	.	16ccJJ	16aJJ
4E	V	#	4b	4g#X
=20	=20	=20	=20	=20
4AA	i|PAC}	.	4a	8aL
.	.	.	.	(16aL
.	.	.	.	16bJJ)
8r	.	.	8r	8ccL
8A	.	.	8ee	(16ddL
.	.	.	.	16ccJJ)
4D#X	i.V65	6	4ff#	(16bLL
.	.	.	.	16cc)
.	.	.	.	(16a
.	.	.	.	16bJJ)
=21	=21	=21	=21	=21
4E	i	.	4b	8gL
.	.	.	.	(16eeL
.	.	.	.	16ff#JJ)
8r	.	.	8r	8ggL
8E	.	.	8bb	(16aaL
.	.	.	.	16ggJJ)
4AA	ii%65	6	4ccc	(16ff#LL
.	.	.	.	16gg)
.	.	.	.	(16ee
.	.	.	.	16ff#JJ)
=22	=22	=22	=22	=22
4BB	V	#	4ff#	8dd#XL
.	.	.	.	8ff#J
8r	.	.	8r	8bbL
8GG	i6	6	8b	8eeJ
8CL	iv6	6	8eeL	[4aa
8AAJ	iio6	6	16ff#L	.
.	.	.	16eeJJ	.
=23	=23	=23	=23	=23
8BBL	V7	7 #	8dd#XL	8aa]
8EJ	i	.	8eeJ	4gg
8GGL	i6	6	8bL	.
8AAJ	ii%65	6 5	8eeJ	8ff#
4BB	V	#	4dd#	4ff#
=24	=24	=24	=24	=24
4E	i|PAC}	.	4ee	8eeL
.	.	.	.	8bJ
8r	.	.	8r	8ccL
8G	i6{	6	8b	8eJ
8cL	iv6	6	8ccL	[4a
8AJ	.	.	8eJ	.
=25	=25	=25	=25	=25
8BL	V7	7 #	8d#XL	8a]
8EJ	i	.	8BJ	4g
8GGL	i6	6	4e	.
8AAJ	ii%65	6 5	.	8f#
4BB	V	#	4d#	4f#
=26	=26	=26	=26	=26
4E	i|PAC}	.	4e	8eL
.	.	.	.	8bJ
8r	.	.	8r	8ccL
8GG	i6{	6	8b	8eJ
8CL	iv6	6	8ccL	[4a
8AAJ	.	.	8eJ	.
=27	=27	=27	=27	=27
8BBL	V7	.	8d#XL	8a]
8EJ	i	.	8BJ	4g
8GGL	i6	6	4e	.
8AAJ	ii%65	5	.	8f#
4BB	V	#	4d#	4f#
=28	=28	=28	=28	=28
2.EE	i|PAC}	.	2.e	2.e
=:|!	=:|!	=:|!	=:|!	=:|!
*-	*-	*-	*-	*-
!!!system-decoration: [{s1,s2},s3]
!!!YEM: CC BY-NC-SA 4.0; CCARH; DCML
!!!RDF**kern: i = editorial accidental